X: 29933
T: O'Sullivan's March
R: jig
M: 6/8
K: Gmajor
D|:GBA {B}ABd|{g}edB A2 D|GBA B{c}BG|AGG GED|
GBA {B}ABd|{g}edB A2 D|GBA B{c}BG|1 AGG G2 D:|2 AGG G2g||
|:e2g e2g|ege {g}edB|ded dBd|dgB BAG|
cBc d^cd|1 egB A2 G|GBA B{c}BG|AGG G2g:|2 egB A2 D|GBA B{c}BG|AGG G2D||

